X:89
T:Lilting Fisherman
Z: id:dc-jig-157
M:6/8
L:1/8
K:G Major
B|dBG GBd|gfg ege|dBG GFG|AFD cBc|!
dBG GBd|gfg ege|dBG FGA|BGF G2:|!
K:D Major
B|ABA AFA|fgf f2e|dce dcB|ABA AFG|!
AFA AFA|BGB Bcd|cec ABc|dfe d2:|!

